X: 1
T: Brightest & Best  #2  [G]
T: For the dance Star of the East
R: reel
Z: 2012 John Chambers <jc:trillian.mit.edu>
S: handwritten MS from Jean Monroe 2012-5-31
M: 4/4
L: 1/8
K: G
|:\
"G" G2 BA GF ED | "F"=F2 FG "Dm"DC D2 | "G"G2 BA GF DC | "D"D2 FF "G"G4 :|
"G"G2 Bc d2 BG | "C"c2 c/d/e "G"dB G2 | G2 Bc d2 BG | "C"c2 B/A/B "D"A4 ||
"G" G2 BA GF ED | "F"=F2 FG "Dm"DC D2 | "G"G2 BA GF DC | "D"D2 FF "G"G4 |]
